X:63
T:As Good As Gone
R:reel
C: 1990, 2010 L.E. McCullough 
M:4/4 
L:1/8
K:G
ge|:d~B3 AGEF|~G3A GEDG|D~G3 DGBd|edBG ~A2ge|
d~B3 AGEF|~G3A GEDG|D~G3 DGBd|1 edBG ~G3e:|2 edBG ~G3A|] 
|:B~d3 e~B3|c~e3 agfe|f~a3 bagf|~g3f gfed|
B~d3 e~B3|c~e3 ~a3g|f~a3 fadf|1~g3f edBA:|2 ~g3a gfge|]
<end>
<start>
